_site/images/homepage/config-5.svg

<svg fill="none" height="227" viewBox="0 0 420 227" width="420" xmlns="http://www.w3.org/2000/svg" xmlns:xlink="http://www.w3.org/1999/xlink"><filter id="a" color-interpolation-filters="sRGB" filterUnits="userSpaceOnUse" height="116" width="264" x="156" y="1"><feFlood flood-opacity="0" result="BackgroundImageFix"/><feColorMatrix in="SourceAlpha" type="matrix" values="0 0 0 0 0 0 0 0 0 0 0 0 0 0 0 0 0 0 127 0"/><feOffset dy="5"/><feGaussianBlur stdDeviation="6"/><feColorMatrix type="matrix" values="0 0 0 0 0 0 0 0 0 0.351917 0 0 0 0 0.429167 0 0 0 0.08 0"/><feBlend in2="BackgroundImageFix" mode="normal" result="effect1_dropShadow"/><feBlend in="SourceGraphic" in2="effect1_dropShadow" mode="normal" result="shape"/></filter><filter id="b" color-interpolation-filters="sRGB" filterUnits="userSpaceOnUse" height="116" width="205" x="156" y="111"><feFlood flood-opacity="0" result="BackgroundImageFix"/><feColorMatrix in="SourceAlpha" type="matrix" values="0 0 0 0 0 0 0 0 0 0 0 0 0 0 0 0 0 0 127 0"/><feOffset dy="5"/><feGaussianBlur stdDeviation="6"/><feColorMatrix type="matrix" values="0 0 0 0 0 0 0 0 0 0.351917 0 0 0 0 0.429167 0 0 0 0.08 0"/><feBlend in2="BackgroundImageFix" mode="normal" result="effect1_dropShadow"/><feBlend in="SourceGraphic" in2="effect1_dropShadow" mode="normal" result="shape"/></filter><filter id="c" color-interpolation-filters="sRGB" filterUnits="userSpaceOnUse" height="165" width="165" x=".5" y=".5"><feFlood flood-opacity="0" result="BackgroundImageFix"/><feColorMatrix in="SourceAlpha" type="matrix" values="0 0 0 0 0 0 0 0 0 0 0 0 0 0 0 0 0 0 127 0"/><feOffset dy="5"/><feGaussianBlur stdDeviation="6"/><feColorMatrix type="matrix" values="0 0 0 0 0 0 0 0 0 0.351917 0 0 0 0 0.429167 0 0 0 0.08 0"/><feBlend in2="BackgroundImageFix" mode="normal" result="effect1_dropShadow"/><feBlend in="SourceGraphic" in2="effect1_dropShadow" mode="normal" result="shape"/></filter><filter id="d" color-interpolation-filters="sRGB" filterUnits="userSpaceOnUse" height="66" width="66" x="99" y="157"><feFlood flood-opacity="0" result="BackgroundImageFix"/><feColorMatrix in="SourceAlpha" type="matrix" values="0 0 0 0 0 0 0 0 0 0 0 0 0 0 0 0 0 0 127 0"/><feOffset dy="5"/><feGaussianBlur stdDeviation="6"/><feColorMatrix type="matrix" values="0 0 0 0 0 0 0 0 0 0.351917 0 0 0 0 0.429167 0 0 0 0.08 0"/><feBlend in2="BackgroundImageFix" mode="normal" result="effect1_dropShadow"/><feBlend in="SourceGraphic" in2="effect1_dropShadow" mode="normal" result="shape"/></filter><g filter="url(#a)"><rect fill="#f9fcff" height="92" rx="15" width="240" x="168" y="8"/></g><g filter="url(#b)"><rect fill="#f9fcff" height="92" rx="15" width="181" x="168" y="118"/></g><g filter="url(#c)"><rect fill="#fff" height="140" rx="15" width="140" x="13" y="8"/><rect height="140" rx="15" stroke="#00a0b6" width="140" x="13" y="8"/></g><path d="m55.8988 107.584c.496.144.876.396 1.14.756.272.36.408.804.408 1.332 0 .728-.26 1.3-.78 1.716-.512.408-1.228.612-2.148.612h-3.876v-8.544h3.756c.88 0 1.572.2 2.076.6.504.392.756.936.756 1.632 0 .448-.12.84-.36 1.176-.232.328-.556.568-.972.72zm-3.744-.528h1.992c1.072 0 1.608-.4 1.608-1.2 0-.4-.132-.7-.396-.9s-.668-.3-1.212-.3h-1.992zm2.196 3.744c.56 0 .968-.1 1.224-.3.264-.2.396-.516.396-.948 0-.44-.132-.764-.396-.972-.256-.208-.664-.312-1.224-.312h-2.196v2.532zm10.0231-1.752h-4.176c.032.648.192 1.128.48 1.44.296.304.732.456 1.308.456.664 0 1.28-.216 1.848-.648l.432 1.032c-.288.232-.644.42-1.068.564-.416.136-.84.204-1.272.204-.992 0-1.772-.28-2.34-.84s-.852-1.328-.852-2.304c0-.616.124-1.164.372-1.644s.596-.852 1.044-1.116c.448-.272.956-.408 1.524-.408.832 0 1.488.272 1.968.816.488.536.732 1.276.732 2.22zm-2.664-2.184c-.4 0-.728.12-.984.36-.248.232-.408.572-.48 1.02h2.82c-.048-.456-.188-.8-.42-1.032-.224-.232-.536-.348-.936-.348zm7.6522-1.08c1.448 0 2.172.832 2.172 2.496v3.72h-1.5v-3.648c0-.48-.092-.828-.276-1.044-.184-.224-.468-.336-.852-.336-.456 0-.824.148-1.104.444-.28.288-.42.672-.42 1.152v3.432h-1.488v-4.344c0-.64-.032-1.212-.096-1.716h1.404l.108.996c.208-.368.488-.652.84-.852.36-.2.764-.3 1.212-.3zm9.3165 3.264h-4.176c.032.648.192 1.128.48 1.44.296.304.732.456 1.308.456.664 0 1.28-.216 1.848-.648l.432 1.032c-.288.232-.644.42-1.068.564-.416.136-.84.204-1.272.204-.992 0-1.772-.28-2.34-.84s-.852-1.328-.852-2.304c0-.616.124-1.164.372-1.644s.596-.852 1.044-1.116c.448-.272.956-.408 1.524-.408.832 0 1.488.272 1.968.816.488.536.732 1.276.732 2.22zm-2.664-2.184c-.4 0-.728.12-.984.36-.248.232-.408.572-.48 1.02h2.82c-.048-.456-.188-.8-.42-1.032-.224-.232-.536-.348-.936-.348zm6.0571-.924h3.984v6.06h-1.5v-4.932h-2.484v4.932h-1.5v-4.932h-1.164v-1.128h1.164v-.612c0-.544.084-.972.252-1.284.168-.32.44-.552.816-.696.384-.144.904-.216 1.56-.216h.444v1.104h-.288c-.376 0-.652.032-.828.096-.176.056-.296.172-.36.348-.064.168-.096.44-.096.816zm4.08-2.808v1.512h-1.692v-1.512zm4.5217 8.964c-.632 0-1.18-.128-1.644-.384s-.82-.616-1.068-1.08c-.248-.472-.372-1.024-.372-1.656s.128-1.188.384-1.668c.264-.48.632-.852 1.104-1.116.48-.272 1.032-.408 1.656-.408.432 0 .848.068 1.248.204.408.136.732.324.972.564l-.42 1.056c-.256-.208-.528-.364-.816-.468-.288-.112-.572-.168-.852-.168-.544 0-.968.172-1.272.516-.304.336-.456.824-.456 1.464s.148 1.128.444 1.464c.304.336.732.504 1.284.504.28 0 .564-.056.852-.168s.56-.272.816-.48l.42 1.056c-.256.24-.588.428-.996.564s-.836.204-1.284.204zm3.5371-6.156h1.488v6.06h-1.488zm1.572-2.748v1.476h-1.668v-1.476zm7.6025 2.748v6.06h-1.476v-.972c-.184.336-.448.6-.792.792-.344.184-.736.276-1.1756.276-.528 0-.996-.128-1.404-.384s-.724-.62-.948-1.092-.336-1.02-.336-1.644.112-1.176.336-1.656c.232-.488.552-.864.96-1.128.408-.272.872-.408 1.392-.408.4396 0 .8316.096 1.1756.288.344.184.608.444.792.78v-.912zm-3.036 4.98c.496 0 .88-.172 1.152-.516s.408-.828.408-1.452c0-.64-.136-1.132-.408-1.476s-.66-.516-1.164-.516c-.4956 0-.8836.18-1.1636.54-.272.352-.408.844-.408 1.476 0 .624.136 1.104.408 1.44.28.336.672.504 1.1756.504zm8.184-5.124c.232 0 .432.032.6.096l-.012 1.368c-.256-.104-.52-.156-.792-.156-.512 0-.904.148-1.176.444-.264.296-.396.688-.396 1.176v3.276h-1.488v-4.344c0-.64-.032-1.212-.096-1.716h1.404l.12 1.068c.152-.392.392-.692.72-.9s.7-.312 1.116-.312zm7.785.144-2.82 6.468c-.32.752-.728 1.3-1.224 1.644s-1.108.572-1.836.684l-.336-1.152c.568-.128.992-.292 1.272-.492.288-.192.52-.48.696-.864l.192-.444-2.52-5.844h1.572l1.74 4.356 1.776-4.356z" fill="#00769d"/><path d="m65.4951 61.7457c1.0516 0 2.066.4415 2.783 1.2112l3.7258 3.9997c.4815-1.5482 1.9276-2.6756 3.6322-2.6756h5.8561c.8199 0 1.6105-.2983 2.226-.8399 3.3104-2.9132 8.2862-2.9388 11.628-.0806.6892-.9757 1.8247-1.6147 3.1075-1.6147h5.2393c.7 0 1.268.5675 1.268 1.2676v15.2117c0 .7001-.568 1.2677-1.268 1.2677h-5.2393c-1.1384 0-2.1609-.5036-2.8584-1.2988l-.7507.211c-2.5678.7218-5.2221 1.0877-7.8894 1.0877h-11.319c-2.7781 0-5.4318-1.3269-7.0987-3.5494l-6.086-8.1145c0-.0001-.0001-.0003-.0003-.0005-.4966-.6622-.7591-1.4505-.7591-2.2798 0-2.0969 1.7061-3.8028 3.803-3.8028zm31.6909 13.944c0 .6989.5687 1.2677 1.2677 1.2677h3.9723v-12.6765h-3.9723c-.6989 0-1.2677.5687-1.2677 1.2677zm-32.7064-9.3823c0 .0001.0001.0001.0002.0002l6.0858 8.1146c1.1907 1.5875 3.0862 2.5352 5.0706 2.5352h11.3187c2.4354 0 4.859-.3341 7.2034-.9931l.4958-.1394c-.0016-.0449-.0035-.0898-.0035-.1351v-9.5682l-.8834-.7774c-2.387-2.1005-5.9872-2.1007-8.3744 0-1.0787.9492-2.4638 1.4719-3.9007 1.4719h-5.8561c-.699 0-1.2677.5687-1.2677 1.2677 0 .6989.5686 1.2676 1.2677 1.2676h9.0094c.7 0 1.2677.5676 1.2677 1.2677s-.5676 1.2677-1.2677 1.2677h-9.8589c-1.0516 0-2.0658-.4414-2.7827-1.2109l-5.5808-5.991c-.2427-.2605-.5723-.404-.9279-.404-.699 0-1.2677.5687-1.2677 1.2677 0 .2764.0872.5388.2522.7588z" fill="#00a0b6"/><path clip-rule="evenodd" d="m88.7433 45.3795c.4926-.493 1.2919-.493 1.7845 0l5.0478 5.0478c.4929.4926.4929 1.2915 0 1.7845l-5.0478 5.0478c-.4926.4929-1.2915.4929-1.7845 0-.4929-.493-.4929-1.2919 0-1.7845l4.1553-4.1556-4.1553-4.1555c-.4929-.4927-.4929-1.2919 0-1.7845zm-9.768-.2355c.6231-.3116 1.3813-.0588 1.6931.5642l5.0478 10.0957c.3116.6234.0589 1.3815-.5642 1.6931-.6248.3125-1.3823.0578-1.6931-.5643l-5.0478-10.0956c-.3119-.6231-.0592-1.3812.5642-1.6931zm-3.5911.2363c-.4926-.493-1.2919-.493-1.7845 0l-5.0478 5.0478c-.4929.4926-.4929 1.2915 0 1.7845l5.0478 5.0478c.4926.4929 1.2919.4929 1.7845 0 .4929-.493.4929-1.2919 0-1.7845l-4.1552-4.1556 4.1552-4.1555c.4929-.493.4929-1.2919 0-1.7845z" fill="#00a0b6" fill-rule="evenodd"/><rect fill="#cddbea" height="8" rx="4" width="65" x="189" y="30"/><rect fill="#cddbea" height="8" rx="4" width="96" x="189" y="139"/><g fill="#eaf1fa"><rect height="8" rx="4" width="189" x="189" y="51"/><rect height="8" rx="4" width="65" x="189" y="160"/><rect height="8" rx="4" width="124" x="189" y="71"/><rect height="8" rx="4" width="124" x="189" y="180"/></g><g filter="url(#d)"><rect fill="#9fd6de" height="42" rx="10" width="42" x="111" y="164"/></g><path clip-rule="evenodd" d="m121.928 180.589c1.754-3.996 5.705-6.581 10.072-6.589 4.367.008 8.318 2.593 10.072 6.589s.981 8.65-1.972 11.866c-2.086 2.26-5.023 3.545-8.1 3.545s-6.014-1.285-8.1-3.545c-2.953-3.216-3.726-7.87-1.972-11.866zm3.957 10.755c1.641 1.586 3.834 2.474 6.117 2.478 2.282-.004 4.475-.892 6.116-2.478-1.019-2.478-3.435-4.096-6.116-4.096-2.682 0-5.098 1.618-6.117 4.096zm3.91-8.535c0-1.217.987-2.203 2.204-2.203 1.218 0 2.204.986 2.204 2.203 0 1.216-.986 2.202-2.204 2.202-1.217 0-2.204-.986-2.204-2.202zm5.511 2.885c1.809.73 3.325 2.039 4.309 3.722.785-1.336 1.2-2.856 1.201-4.405 0-4.865-3.947-8.809-8.816-8.809s-8.817 3.944-8.817 8.809c.002 1.549.417 3.069 1.202 4.405.984-1.683 2.5-2.992 4.309-3.722-1.563-1.771-1.451-4.458.255-6.092 1.705-1.634 4.397-1.634 6.102 0 1.706 1.634 1.818 4.321.255 6.092z" fill="#fff" fill-rule="evenodd"/></svg>

<svg width="420" height="227" viewBox="0 0 420 227" fill="none" xmlns="http://www.w3.org/2000/svg">
<g filter="url(#filter0_d)">
<rect x="168" y="8" width="240" height="92" rx="15" fill="#F9FCFF"/>
</g>
<g filter="url(#filter1_d)">
<rect x="168" y="118" width="181" height="92" rx="15" fill="#F9FCFF"/>
</g>
<g filter="url(#filter2_d)">
<rect x="13" y="8" width="140" height="140" rx="15" fill="white"/>
<rect x="13" y="8" width="140" height="140" rx="15" stroke="#00A0B6"/>
</g>
<path d="M55.8988 107.584C56.3948 107.728 56.7748 107.98 57.0388 108.34C57.3108 108.7 57.4468 109.144 57.4468 109.672C57.4468 110.4 57.1868 110.972 56.6668 111.388C56.1548 111.796 55.4388 112 54.5188 112H50.6428V103.456H54.3988C55.2788 103.456 55.9708 103.656 56.4748 104.056C56.9788 104.448 57.2308 104.992 57.2308 105.688C57.2308 106.136 57.1108 106.528 56.8708 106.864C56.6388 107.192 56.3148 107.432 55.8988 107.584ZM52.1548 107.056H54.1468C55.2188 107.056 55.7548 106.656 55.7548 105.856C55.7548 105.456 55.6228 105.156 55.3588 104.956C55.0948 104.756 54.6908 104.656 54.1468 104.656H52.1548V107.056ZM54.3508 110.8C54.9108 110.8 55.3188 110.7 55.5748 110.5C55.8388 110.3 55.9708 109.984 55.9708 109.552C55.9708 109.112 55.8388 108.788 55.5748 108.58C55.3188 108.372 54.9108 108.268 54.3508 108.268H52.1548V110.8H54.3508ZM64.3739 109.048H60.1979C60.2299 109.696 60.3899 110.176 60.6779 110.488C60.9739 110.792 61.4099 110.944 61.9859 110.944C62.6499 110.944 63.2659 110.728 63.8339 110.296L64.2659 111.328C63.9779 111.56 63.6219 111.748 63.1979 111.892C62.7819 112.028 62.3579 112.096 61.9259 112.096C60.9339 112.096 60.1539 111.816 59.5859 111.256C59.0179 110.696 58.7339 109.928 58.7339 108.952C58.7339 108.336 58.8579 107.788 59.1059 107.308C59.3539 106.828 59.7019 106.456 60.1499 106.192C60.5979 105.92 61.1059 105.784 61.6739 105.784C62.5059 105.784 63.1619 106.056 63.6419 106.6C64.1299 107.136 64.3739 107.876 64.3739 108.82V109.048ZM61.7099 106.864C61.3099 106.864 60.9819 106.984 60.7259 107.224C60.4779 107.456 60.3179 107.796 60.2459 108.244H63.0659C63.0179 107.788 62.8779 107.444 62.6459 107.212C62.4219 106.98 62.1099 106.864 61.7099 106.864ZM69.3621 105.784C70.8101 105.784 71.5341 106.616 71.5341 108.28V112H70.0341V108.352C70.0341 107.872 69.9421 107.524 69.7581 107.308C69.5741 107.084 69.2901 106.972 68.9061 106.972C68.4501 106.972 68.0821 107.12 67.8021 107.416C67.5221 107.704 67.3821 108.088 67.3821 108.568V112H65.8941V107.656C65.8941 107.016 65.8621 106.444 65.7981 105.94H67.2021L67.3101 106.936C67.5181 106.568 67.7981 106.284 68.1501 106.084C68.5101 105.884 68.9141 105.784 69.3621 105.784ZM78.6786 109.048H74.5026C74.5346 109.696 74.6946 110.176 74.9826 110.488C75.2786 110.792 75.7146 110.944 76.2906 110.944C76.9546 110.944 77.5706 110.728 78.1386 110.296L78.5706 111.328C78.2826 111.56 77.9266 111.748 77.5026 111.892C77.0866 112.028 76.6626 112.096 76.2306 112.096C75.2386 112.096 74.4586 111.816 73.8906 111.256C73.3226 110.696 73.0386 109.928 73.0386 108.952C73.0386 108.336 73.1626 107.788 73.4106 107.308C73.6586 106.828 74.0066 106.456 74.4546 106.192C74.9026 105.92 75.4106 105.784 75.9786 105.784C76.8106 105.784 77.4666 106.056 77.9466 106.6C78.4346 107.136 78.6786 107.876 78.6786 108.82V109.048ZM76.0146 106.864C75.6146 106.864 75.2866 106.984 75.0306 107.224C74.7826 107.456 74.6226 107.796 74.5506 108.244H77.3706C77.3226 107.788 77.1826 107.444 76.9506 107.212C76.7266 106.98 76.4146 106.864 76.0146 106.864ZM82.0717 105.94H86.0557V112H84.5557V107.068H82.0717V112H80.5717V107.068H79.4077V105.94H80.5717V105.328C80.5717 104.784 80.6557 104.356 80.8237 104.044C80.9917 103.724 81.2637 103.492 81.6397 103.348C82.0237 103.204 82.5437 103.132 83.1997 103.132H83.6437V104.236H83.3557C82.9797 104.236 82.7037 104.268 82.5277 104.332C82.3517 104.388 82.2317 104.504 82.1677 104.68C82.1037 104.848 82.0717 105.12 82.0717 105.496V105.94ZM86.1517 103.132V104.644H84.4597V103.132H86.1517ZM90.6734 112.096C90.0414 112.096 89.4934 111.968 89.0294 111.712C88.5654 111.456 88.2094 111.096 87.9614 110.632C87.7134 110.16 87.5894 109.608 87.5894 108.976C87.5894 108.344 87.7174 107.788 87.9734 107.308C88.2374 106.828 88.6054 106.456 89.0774 106.192C89.5574 105.92 90.1094 105.784 90.7334 105.784C91.1654 105.784 91.5814 105.852 91.9814 105.988C92.3894 106.124 92.7134 106.312 92.9534 106.552L92.5334 107.608C92.2774 107.4 92.0054 107.244 91.7174 107.14C91.4294 107.028 91.1454 106.972 90.8654 106.972C90.3214 106.972 89.8974 107.144 89.5934 107.488C89.2894 107.824 89.1374 108.312 89.1374 108.952C89.1374 109.592 89.2854 110.08 89.5814 110.416C89.8854 110.752 90.3134 110.92 90.8654 110.92C91.1454 110.92 91.4294 110.864 91.7174 110.752C92.0054 110.64 92.2774 110.48 92.5334 110.272L92.9534 111.328C92.6974 111.568 92.3654 111.756 91.9574 111.892C91.5494 112.028 91.1214 112.096 90.6734 112.096ZM94.2105 105.94H95.6985V112H94.2105V105.94ZM95.7825 103.192V104.668H94.1145V103.192H95.7825ZM103.385 105.94V112H101.909V111.028C101.725 111.364 101.461 111.628 101.117 111.82C100.773 112.004 100.381 112.096 99.9414 112.096C99.4134 112.096 98.9454 111.968 98.5374 111.712C98.1294 111.456 97.8134 111.092 97.5894 110.62C97.3654 110.148 97.2534 109.6 97.2534 108.976C97.2534 108.352 97.3654 107.8 97.5894 107.32C97.8214 106.832 98.1414 106.456 98.5494 106.192C98.9574 105.92 99.4214 105.784 99.9414 105.784C100.381 105.784 100.773 105.88 101.117 106.072C101.461 106.256 101.725 106.516 101.909 106.852V105.94H103.385ZM100.349 110.92C100.845 110.92 101.229 110.748 101.501 110.404C101.773 110.06 101.909 109.576 101.909 108.952C101.909 108.312 101.773 107.82 101.501 107.476C101.229 107.132 100.841 106.96 100.337 106.96C99.8414 106.96 99.4534 107.14 99.1734 107.5C98.9014 107.852 98.7654 108.344 98.7654 108.976C98.7654 109.6 98.9014 110.08 99.1734 110.416C99.4534 110.752 99.8454 110.92 100.349 110.92ZM108.533 105.796C108.765 105.796 108.965 105.828 109.133 105.892L109.121 107.26C108.865 107.156 108.601 107.104 108.329 107.104C107.817 107.104 107.425 107.252 107.153 107.548C106.889 107.844 106.757 108.236 106.757 108.724V112H105.269V107.656C105.269 107.016 105.237 106.444 105.173 105.94H106.577L106.697 107.008C106.849 106.616 107.089 106.316 107.417 106.108C107.745 105.9 108.117 105.796 108.533 105.796ZM116.318 105.94L113.498 112.408C113.178 113.16 112.77 113.708 112.274 114.052C111.778 114.396 111.166 114.624 110.438 114.736L110.102 113.584C110.67 113.456 111.094 113.292 111.374 113.092C111.662 112.9 111.894 112.612 112.07 112.228L112.262 111.784L109.742 105.94H111.314L113.054 110.296L114.83 105.94H116.318Z" fill="#00769D"/>
<path d="M65.4951 61.7457C66.5467 61.7457 67.5611 62.1872 68.2781 62.9569L72.0039 66.9566C72.4854 65.4084 73.9315 64.281 75.6361 64.281H81.4922C82.3121 64.281 83.1027 63.9827 83.7182 63.4411C87.0286 60.5279 92.0044 60.5023 95.3462 63.3605C96.0354 62.3848 97.1709 61.7458 98.4537 61.7458H103.693C104.393 61.7458 104.961 62.3133 104.961 63.0134V78.2251C104.961 78.9252 104.393 79.4928 103.693 79.4928H98.4537C97.3153 79.4928 96.2928 78.9892 95.5953 78.194L94.8446 78.405C92.2768 79.1268 89.6225 79.4927 86.9552 79.4927H75.6362C72.8581 79.4927 70.2044 78.1658 68.5375 75.9433L62.4515 67.8288C62.4515 67.8287 62.4514 67.8285 62.4512 67.8283C61.9546 67.1661 61.6921 66.3778 61.6921 65.5485C61.6921 63.4516 63.3982 61.7457 65.4951 61.7457ZM97.186 75.6897C97.186 76.3886 97.7547 76.9574 98.4537 76.9574H102.426V64.2809H98.4537C97.7548 64.2809 97.186 64.8496 97.186 65.5486V75.6897ZM64.4796 66.3074C64.4796 66.3075 64.4797 66.3075 64.4798 66.3076L70.5656 74.4222C71.7563 76.0097 73.6518 76.9574 75.6362 76.9574H86.9549C89.3903 76.9574 91.8139 76.6233 94.1583 75.9643L94.6541 75.8249C94.6525 75.78 94.6506 75.7351 94.6506 75.6898V66.1216L93.7672 65.3442C91.3802 63.2437 87.78 63.2435 85.3928 65.3442C84.3141 66.2934 82.929 66.8161 81.4921 66.8161H75.636C74.937 66.8161 74.3683 67.3848 74.3683 68.0838C74.3683 68.7827 74.9369 69.3514 75.636 69.3514H84.6454C85.3454 69.3514 85.9131 69.919 85.9131 70.6191C85.9131 71.3192 85.3455 71.8868 84.6454 71.8868H74.7865C73.7349 71.8868 72.7207 71.4454 72.0038 70.6759L66.423 64.6849C66.1803 64.4244 65.8507 64.2809 65.4951 64.2809C64.7961 64.2809 64.2274 64.8496 64.2274 65.5486C64.2274 65.825 64.3146 66.0874 64.4796 66.3074Z" fill="#00A0B6"/>
<path fill-rule="evenodd" clip-rule="evenodd" d="M88.7433 45.3795C89.2359 44.8865 90.0352 44.8865 90.5278 45.3795L95.5756 50.4273C96.0685 50.9199 96.0685 51.7188 95.5756 52.2118L90.5278 57.2596C90.0352 57.7525 89.2363 57.7525 88.7433 57.2596C88.2504 56.7666 88.2504 55.9677 88.7433 55.4751L92.8986 51.3195L88.7433 47.164C88.2504 46.6713 88.2504 45.8721 88.7433 45.3795ZM78.9753 45.144C79.5984 44.8324 80.3566 45.0852 80.6684 45.7082L85.7162 55.8039C86.0278 56.4273 85.7751 57.1854 85.152 57.497C84.5272 57.8095 83.7697 57.5548 83.4589 56.9327L78.4111 46.8371C78.0992 46.214 78.3519 45.4559 78.9753 45.144ZM75.3842 45.3803C74.8916 44.8873 74.0923 44.8873 73.5997 45.3803L68.5519 50.4281C68.059 50.9207 68.059 51.7196 68.5519 52.2126L73.5997 57.2604C74.0923 57.7533 74.8916 57.7533 75.3842 57.2604C75.8771 56.7674 75.8771 55.9685 75.3842 55.4759L71.229 51.3203L75.3842 47.1648C75.8771 46.6718 75.8771 45.8729 75.3842 45.3803Z" fill="#00A0B6"/>
<rect x="189" y="30" width="65" height="8" rx="4" fill="#CDDBEA"/>
<rect x="189" y="139" width="96" height="8" rx="4" fill="#CDDBEA"/>
<rect x="189" y="51" width="189" height="8" rx="4" fill="#EAF1FA"/>
<rect x="189" y="160" width="65" height="8" rx="4" fill="#EAF1FA"/>
<rect x="189" y="71" width="124" height="8" rx="4" fill="#EAF1FA"/>
<rect x="189" y="180" width="124" height="8" rx="4" fill="#EAF1FA"/>
<g filter="url(#filter3_d)">
<rect x="111" y="164" width="42" height="42" rx="10" fill="#9FD6DE"/>
</g>
<path fill-rule="evenodd" clip-rule="evenodd" d="M121.928 180.589C123.682 176.593 127.633 174.008 132 174C136.367 174.008 140.318 176.593 142.072 180.589C143.826 184.585 143.053 189.239 140.1 192.455C138.014 194.715 135.077 196 132 196C128.923 196 125.986 194.715 123.9 192.455C120.947 189.239 120.174 184.585 121.928 180.589ZM125.885 191.344C127.526 192.93 129.719 193.818 132.002 193.822C134.284 193.818 136.477 192.93 138.118 191.344C137.099 188.866 134.683 187.248 132.002 187.248C129.32 187.248 126.904 188.866 125.885 191.344ZM129.795 182.809C129.795 181.592 130.782 180.606 131.999 180.606C133.217 180.606 134.203 181.592 134.203 182.809C134.203 184.025 133.217 185.011 131.999 185.011C130.782 185.011 129.795 184.025 129.795 182.809ZM135.306 185.694C137.115 186.424 138.631 187.733 139.615 189.416C140.4 188.08 140.815 186.56 140.816 185.011C140.816 180.146 136.869 176.202 132 176.202C127.131 176.202 123.183 180.146 123.183 185.011C123.185 186.56 123.6 188.08 124.385 189.416C125.369 187.733 126.885 186.424 128.694 185.694C127.131 183.923 127.243 181.236 128.949 179.602C130.654 177.968 133.346 177.968 135.051 179.602C136.757 181.236 136.869 183.923 135.306 185.694Z" fill="white"/>
<defs>
<filter id="filter0_d" x="156" y="1" width="264" height="116" filterUnits="userSpaceOnUse" color-interpolation-filters="sRGB">
<feFlood flood-opacity="0" result="BackgroundImageFix"/>
<feColorMatrix in="SourceAlpha" type="matrix" values="0 0 0 0 0 0 0 0 0 0 0 0 0 0 0 0 0 0 127 0"/>
<feOffset dy="5"/>
<feGaussianBlur stdDeviation="6"/>
<feColorMatrix type="matrix" values="0 0 0 0 0 0 0 0 0 0.351917 0 0 0 0 0.429167 0 0 0 0.08 0"/>
<feBlend mode="normal" in2="BackgroundImageFix" result="effect1_dropShadow"/>
<feBlend mode="normal" in="SourceGraphic" in2="effect1_dropShadow" result="shape"/>
</filter>
<filter id="filter1_d" x="156" y="111" width="205" height="116" filterUnits="userSpaceOnUse" color-interpolation-filters="sRGB">
<feFlood flood-opacity="0" result="BackgroundImageFix"/>
<feColorMatrix in="SourceAlpha" type="matrix" values="0 0 0 0 0 0 0 0 0 0 0 0 0 0 0 0 0 0 127 0"/>
<feOffset dy="5"/>
<feGaussianBlur stdDeviation="6"/>
<feColorMatrix type="matrix" values="0 0 0 0 0 0 0 0 0 0.351917 0 0 0 0 0.429167 0 0 0 0.08 0"/>
<feBlend mode="normal" in2="BackgroundImageFix" result="effect1_dropShadow"/>
<feBlend mode="normal" in="SourceGraphic" in2="effect1_dropShadow" result="shape"/>
</filter>
<filter id="filter2_d" x="0.5" y="0.5" width="165" height="165" filterUnits="userSpaceOnUse" color-interpolation-filters="sRGB">
<feFlood flood-opacity="0" result="BackgroundImageFix"/>
<feColorMatrix in="SourceAlpha" type="matrix" values="0 0 0 0 0 0 0 0 0 0 0 0 0 0 0 0 0 0 127 0"/>
<feOffset dy="5"/>
<feGaussianBlur stdDeviation="6"/>
<feColorMatrix type="matrix" values="0 0 0 0 0 0 0 0 0 0.351917 0 0 0 0 0.429167 0 0 0 0.08 0"/>
<feBlend mode="normal" in2="BackgroundImageFix" result="effect1_dropShadow"/>
<feBlend mode="normal" in="SourceGraphic" in2="effect1_dropShadow" result="shape"/>
</filter>
<filter id="filter3_d" x="99" y="157" width="66" height="66" filterUnits="userSpaceOnUse" color-interpolation-filters="sRGB">
<feFlood flood-opacity="0" result="BackgroundImageFix"/>
<feColorMatrix in="SourceAlpha" type="matrix" values="0 0 0 0 0 0 0 0 0 0 0 0 0 0 0 0 0 0 127 0"/>
<feOffset dy="5"/>
<feGaussianBlur stdDeviation="6"/>
<feColorMatrix type="matrix" values="0 0 0 0 0 0 0 0 0 0.351917 0 0 0 0 0.429167 0 0 0 0.08 0"/>
<feBlend mode="normal" in2="BackgroundImageFix" result="effect1_dropShadow"/>
<feBlend mode="normal" in="SourceGraphic" in2="effect1_dropShadow" result="shape"/>
</filter>
</defs>
</svg>
